X: 6
T: The Devil Is Dead
R: barndance
M: 4/4
L: 1/8
K: Dmaj
F<A A>B d>e f>e|d<B B>A B<d B>A|F<A A>B d>e f>d|e<g f<a e2 d2:||
f<a a>g f>d a>f|g<b b>a g>e b>g|f<a a>g f>d a>f|g<b f<a e2 d2:||
e<e e>f g>f e<d|B2 B>A B<d B>A|F<A A>B d>e f>d|e<g f<a e2 d2:||
F<A A>G F>D A>F|G<B B>A G>E B>G|F<A A>G F>D A>F|G<B A>F E2 D2|
F<A A>G F>D A>F|E<E E>F G>F E>D|F<A A>B d>e f>g|a>b a<f e2 d2||


Tune 1990	Setting 15412

